src/assets/obucheniye/icons/chair.svg

<svg fill="none" height="84" viewBox="0 0 70 84" width="70" xmlns="http://www.w3.org/2000/svg"><g fill="#942fe5"><path d="m7.53243 0h-5.53243c-1.104568 0-2 .895431-2 2v7.00183c0 1.10457.895431 1.99997 2 1.99997h5.53243c2.56677 0 4.65497-2.02566 4.65497-4.51568v-1.97041c0-2.49001-2.0882-4.51571-4.65497-4.51571zm2.1159 6.48612c0 1.13193-.94907 2.05261-2.1159 2.05261h-4.99338v-6.07563h4.99338c1.16683 0 2.1159.92068 2.1159 2.05261z"/><path d="m44.2614 42.5259h-22.2589c-2.7406 0-5.2773 1.2079-6.9595 3.3137l2.0067 1.5088c1.1978-1.4994 3.0029-2.3595 4.9526-2.3595h22.2589c2.1002 0 3.8085 1.6575 3.8085 3.6948v2.2986h2.5391v-2.2984c.0001-3.3954-2.8473-6.158-6.3474-6.158z"/><path d="m7.53243 13.1353h-5.53243c-1.104568 0-2 .8954-2 2v29.4431c0 2.5175.862785 4.9131 2.45127 6.8614.42702.5237 1.20466.5271 1.69435.0614.51126-.4861.51062-1.2943.08691-1.8584-1.09931-1.4637-1.69348-3.2221-1.69348-5.0644v-26.9802c0-1.1046.89543-2 2-2h2.99338c1.16683 0 2.1159.9206 2.1159 2.0525v10.5168c0 .7011.56837 1.2695 1.26957 1.2695.7011 0 1.2695-.5684 1.2695-1.2695v-10.5168c0-2.49-2.0882-4.5154-4.65497-4.5154z"/><path d="m48.9784 80.5369c-.6871 0-1.3121-.3772-1.8414-.8153-1.3832-1.1448-3.9163-1.8962-6.7229-2.3658-.9174-.1535-1.6378-.8865-1.7311-1.812l-1.3852-13.7413c-.1187-1.178.8061-2.2006 1.99-2.2006h7.0061c2.1002 0 3.8085-1.6573 3.8085-3.6944 0-2.0373-1.7085-3.6944-3.8085-3.6944h-24.5441c-4.62 0-8.3787-3.6462-8.3787-8.1278s3.7588-8.1277 8.3787-8.1277h21.8737c.6801 0 1.2314-.5513 1.2314-1.2314 0-3.3953-2.8473-6.1574-6.3475-6.1574h-16.7576c-8.8201 0-15.99589 6.9608-15.99589 15.5166 0 8.5559 7.17579 15.5166 15.99589 15.5166.0551 0 .0823.0671.0427.1055l-3.9644 3.8456c-.3732.362-.8726.5644-1.3925.5644h-1.5792c-.6801 0-1.2315.5514-1.2315 1.2315s.5514 1.2315 1.2315 1.2315h2.6307c.5199 0 1.0194-.2025 1.3925-.5644l2.3531-2.2826c1.3459-1.3055 3.5869-.2078 3.3803 1.6559l-1.1506 10.382c-.0994.8969-.789 1.6091-1.6737 1.7869-2.3581.474-4.4228 1.171-5.6223 2.1641-.5292.4381-1.1537.8148-1.8408.8148h-3.5319c-.68 0-1.2313.5513-1.2313 1.2314 0 .68.5513 1.2313 1.2313 1.2313h41.5471c.6801 0 1.2315-.5514 1.2315-1.2315s-.5514-1.2315-1.2315-1.2315zm-25.959-48.2739c0-.6801.5514-1.2315 1.2315-1.2315h14.2567c.6163 0 1.1989.1427 1.7145.3959 1.247.6125.4054 2.0671-.9839 2.0671h-14.9873c-.6801 0-1.2315-.5514-1.2315-1.2315zm-1.2697 24.8759c-7.4201 0-13.45674-5.856-13.45674-13.0536 0-6.3281 4.66654-11.6172 10.83664-12.8032.7194-.1382 1.3507.441 1.3507 1.1735 0 .6338-.4784 1.1591-1.098 1.2925-4.8854 1.0519-8.5503 5.286-8.5503 10.3372 0 5.8396 4.8978 10.5906 10.9178 10.5906h24.5441c.7 0 1.2694.5523 1.2694 1.2314s-.5694 1.2314-1.2694 1.2314zm14.2749 17.3405c.1251 1.2404-.9032 2.2902-2.149 2.2425-.7813-.0299-1.5295-.0436-2.2235-.0436-1.009 0-2.1324.0288-3.3058.0946-1.2699.0712-2.3302-1.0004-2.1901-2.2646l1.4549-13.1269c.1123-1.0131.9686-1.7797 1.9879-1.7797h3.1174c1.0269 0 1.8869.7777 1.9899 1.7994zm-14.3175 6.0575c-.2914 0-.341-.3627-.0569-.4276 2.7297-.6243 6.2819-.9682 10.0019-.9682 3.7201 0 7.2721.3439 10.002.9682.284.0649.2345.4276-.0569.4276z"/><path d="m55.9932 68.634c-.7816 0-1.4917-.4554-1.8177-1.1659l-2.8483-6.2067c-.2862-.6239-1.0184-.9049-1.6485-.6328-.6507.2809-.9428 1.0422-.6473 1.6863l3.4951 7.6163c.326.7105 1.0361 1.1659 1.8178 1.1659h6.8845c.6802 0 1.2316.5513 1.2316 1.2315 0 .6801-.5514 1.2315-1.2316 1.2315h-8.8535c-.8066 0-1.5343-.4845-1.8453-1.2287l-4.1782-9.997c-.2652-.6345-.989-.9405-1.6289-.6888-.6594.2593-.9768 1.0099-.7036 1.6637l4.8004 11.485c.311.7442 1.0387 1.2287 1.8453 1.2287h12.3344c1.1046 0 2-.8954 2-2v-3.389c0-1.1046-.8954-2-2-2z"/><path d="m32.5 72h-2.5391v2.4639h2.5391z"/><path d="m32.5 62.145h-2.5391v2.4631h2.5391z"/><path d="m32.5 67.0728h-2.5391v2.4638h2.5391z"/></g></svg>

<svg width="70" height="84" viewBox="0 0 70 84" fill="none" xmlns="http://www.w3.org/2000/svg">
<path d="M7.53243 0H2C0.895432 0 0 0.895431 0 2V9.00183C0 10.1064 0.895431 11.0018 2 11.0018H7.53243C10.0992 11.0018 12.1874 8.97614 12.1874 6.48612V4.51571C12.1874 2.0257 10.0992 0 7.53243 0ZM9.64833 6.48612C9.64833 7.61805 8.69926 8.53873 7.53243 8.53873H2.53905V2.4631H7.53243C8.69926 2.4631 9.64833 3.38378 9.64833 4.51571V6.48612Z" fill="#942FE5"/>
<path d="M44.2614 42.5259H22.0025C19.2619 42.5259 16.7252 43.7338 15.043 45.8396L17.0497 47.3484C18.2475 45.849 20.0526 44.9889 22.0023 44.9889H44.2612C46.3614 44.9889 48.0697 46.6464 48.0697 48.6837V50.9823H50.6088V48.6839C50.6089 45.2885 47.7615 42.5259 44.2614 42.5259Z" fill="#942FE5"/>
<path d="M7.53243 13.1353H2C0.895432 13.1353 0 14.0307 0 15.1353V44.5784C0 47.0959 0.862785 49.4915 2.45127 51.4398C2.87829 51.9635 3.65593 51.9669 4.14562 51.5012C4.65688 51.0151 4.65624 50.2069 4.23253 49.6428C3.13322 48.1791 2.53905 46.4207 2.53905 44.5784V17.5982C2.53905 16.4936 3.43448 15.5982 4.53905 15.5982H7.53243C8.69926 15.5982 9.64833 16.5188 9.64833 17.6507V28.1675C9.64833 28.8686 10.2167 29.437 10.9179 29.437C11.619 29.437 12.1874 28.8686 12.1874 28.1675V17.6507C12.1874 15.1607 10.0992 13.1353 7.53243 13.1353Z" fill="#942FE5"/>
<path d="M48.9784 80.5369C48.2913 80.5369 47.6663 80.1597 47.137 79.7216C45.7538 78.5768 43.2207 77.8254 40.4141 77.3558C39.4967 77.2023 38.7763 76.4693 38.683 75.5438L37.2978 61.8025C37.1791 60.6245 38.1039 59.6019 39.2878 59.6019H46.2939C48.3941 59.6019 50.1024 57.9446 50.1024 55.9075C50.1024 53.8702 48.3939 52.2131 46.2939 52.2131H21.7498C17.1298 52.2131 13.3711 48.5669 13.3711 44.0853C13.3711 39.6037 17.1299 35.9576 21.7498 35.9576H43.6235C44.3036 35.9576 44.8549 35.4063 44.8549 34.7262C44.8549 31.3309 42.0076 28.5688 38.5074 28.5688H21.7498C12.9297 28.5688 5.75391 35.5296 5.75391 44.0854C5.75391 52.6413 12.9297 59.602 21.7498 59.602C21.8049 59.602 21.8321 59.6691 21.7925 59.7075L17.8281 63.5531C17.4549 63.9151 16.9555 64.1175 16.4356 64.1175H14.8564C14.1763 64.1175 13.6249 64.6689 13.6249 65.349C13.6249 66.0291 14.1763 66.5805 14.8564 66.5805H17.4871C18.007 66.5805 18.5065 66.378 18.8796 66.0161L21.2327 63.7335C22.5786 62.428 24.8196 63.5257 24.613 65.3894L23.4624 75.7714C23.363 76.6683 22.6734 77.3805 21.7887 77.5583C19.4306 78.0323 17.3659 78.7293 16.1664 79.7224C15.6372 80.1605 15.0127 80.5372 14.3256 80.5372H10.7937C10.1137 80.5372 9.5624 81.0885 9.5624 81.7686C9.5624 82.4486 10.1137 82.9999 10.7937 82.9999H52.3408C53.0209 82.9999 53.5723 82.4485 53.5723 81.7684C53.5723 81.0883 53.0209 80.5369 52.3408 80.5369H48.9784ZM23.0194 32.263C23.0194 31.5829 23.5708 31.0315 24.2509 31.0315H38.5076C39.1239 31.0315 39.7065 31.1742 40.2221 31.4274C41.4691 32.0399 40.6275 33.4945 39.2382 33.4945H24.2509C23.5708 33.4945 23.0194 32.9431 23.0194 32.263ZM21.7497 57.1389C14.3296 57.1389 8.29296 51.2829 8.29296 44.0853C8.29296 37.7572 12.9595 32.4681 19.1296 31.2821C19.849 31.1439 20.4803 31.7231 20.4803 32.4556C20.4803 33.0894 20.0019 33.6147 19.3823 33.7481C14.4969 34.8 10.832 39.0341 10.832 44.0853C10.832 49.9249 15.7298 54.6759 21.7498 54.6759H46.2939C46.9939 54.6759 47.5633 55.2282 47.5633 55.9073C47.5633 56.5864 46.9939 57.1387 46.2939 57.1387L21.7497 57.1389ZM36.0246 74.4794C36.1497 75.7198 35.1214 76.7696 33.8756 76.7219C33.0943 76.692 32.3461 76.6783 31.6521 76.6783C30.6431 76.6783 29.5197 76.7071 28.3463 76.7729C27.0764 76.8441 26.0161 75.7725 26.1562 74.5083L27.6111 61.3814C27.7234 60.3683 28.5797 59.6017 29.599 59.6017H32.7164C33.7433 59.6017 34.6033 60.3794 34.7063 61.4011L36.0246 74.4794ZM21.7071 80.5369C21.4157 80.5369 21.3661 80.1742 21.6502 80.1093C24.3799 79.485 27.9321 79.1411 31.6521 79.1411C35.3722 79.1411 38.9242 79.485 41.6541 80.1093C41.9381 80.1742 41.8886 80.5369 41.5972 80.5369H21.7071Z" fill="#942FE5"/>
<path d="M55.9932 68.634C55.2116 68.634 54.5015 68.1786 54.1755 67.4681L51.3272 61.2614C51.041 60.6375 50.3088 60.3565 49.6787 60.6286C49.028 60.9095 48.7359 61.6708 49.0314 62.3149L52.5265 69.9312C52.8525 70.6417 53.5626 71.0971 54.3443 71.0971H61.2288C61.909 71.0971 62.4604 71.6484 62.4604 72.3286C62.4604 73.0087 61.909 73.5601 61.2288 73.5601H52.3753C51.5687 73.5601 50.841 73.0756 50.53 72.3314L46.3518 62.3344C46.0866 61.6999 45.3628 61.3939 44.7229 61.6456C44.0635 61.9049 43.7461 62.6555 44.0193 63.3093L48.8197 74.7943C49.1307 75.5385 49.8584 76.023 50.665 76.023H62.9994C64.104 76.023 64.9994 75.1276 64.9994 74.023V70.634C64.9994 69.5294 64.104 68.634 62.9994 68.634H55.9932Z" fill="#942FE5"/>
<path d="M32.5 72H29.9609V74.4639H32.5V72Z" fill="#942FE5"/>
<path d="M32.5 62.145H29.9609V64.6081H32.5V62.145Z" fill="#942FE5"/>
<path d="M32.5 67.0728H29.9609V69.5366H32.5V67.0728Z" fill="#942FE5"/>
</svg>
